packages/core/src/svgs/tokens/mono/STX.svg

<svg width="24" height="24" viewBox="0 0 24 24" fill="none" xmlns="http://www.w3.org/2000/svg">
<path d="M9.17211 8.97662C8.37029 8.97662 7.6013 9.29513 7.03434 9.86211C6.46737 10.429 6.14884 11.1981 6.14884 11.9999C6.14884 14.1859 4.38139 15.9534 2.19535 15.9534H2V15.0231H2.19535C2.99716 15.0231 3.76614 14.7046 4.33311 14.1376C4.90009 13.5707 5.21861 12.8017 5.21861 11.9999C5.21861 9.81383 6.98605 8.04639 9.17211 8.04639H13.8604C16.0465 8.04639 17.814 9.81383 17.814 11.9999V12.2278C17.814 12.717 17.7176 13.2015 17.5304 13.6535C17.3432 14.1055 17.0687 14.5163 16.7227 14.8622C16.3769 15.2081 15.9661 15.4826 15.5141 15.6698C15.0621 15.857 14.5776 15.9534 14.0884 15.9534V15.0231C15.6326 15.0231 16.8838 13.7673 16.8838 12.2278V11.9999C16.8838 11.1981 16.5653 10.429 15.9982 9.86211C15.4313 9.29513 14.6624 8.97662 13.8604 8.97662H9.17211ZM17.814 11.9999C17.814 9.81383 19.5815 8.04639 21.7675 8.04639H22V8.97662H21.7675C20.9656 8.97662 20.1967 9.29513 19.6298 9.86211C19.0627 10.429 18.7442 11.1981 18.7442 11.9999C18.7442 12.8017 19.0627 13.5707 19.6298 14.1376C20.1967 14.7046 20.9656 15.0231 21.7675 15.0231H22V15.9534H21.7675C20.7189 15.9534 19.7133 15.5369 18.972 14.7954C18.2305 14.054 17.814 13.0484 17.814 11.9999ZM10.8372 11.7673V15.9534H11.7675V11.7673H10.8372Z" fill="white"/>
</svg>

<svg xmlns="http://www.w3.org/2000/svg" width="24" height="24" fill="none" viewBox="0 0 24 24">
    <path fill="#fff" d="M9.172 8.977A3.023 3.023 0 0 0 6.15 12a3.95 3.95 0 0 1-3.954 3.953H2v-.93h.195A3.023 3.023 0 0 0 5.22 12a3.95 3.95 0 0 1 3.953-3.954h4.688A3.95 3.95 0 0 1 17.814 12v.228a3.726 3.726 0 0 1-3.726 3.725v-.93a2.8 2.8 0 0 0 2.796-2.795V12a3.023 3.023 0 0 0-3.024-3.023zM17.814 12a3.95 3.95 0 0 1 3.953-3.954H22v.93h-.233a3.023 3.023 0 1 0 0 6.047H22v.93h-.233A3.953 3.953 0 0 1 17.815 12m-6.977-.233v4.186h.93v-4.186z"/>
</svg>
